X:16
T:Jumper's Chase
T:John Malchairs Third Collection of Tunes
%%VWML:Malchair-3619-p16
F:https://www.vwml.org/record/Malchair/3619/p16
F:www.vwml.org/topics/historic-dance-and-tune-books/Malchair
Z:Peter Dunk Jan 2020
M:3/2
L:1/8
K:Bb
f4d4 (ga)(gf)|g2 b4 d2c2 B2|f2d2 B3A (GA) B2|
A2c2 f2A2 G2F2||D2F2 (Bc)d2 G4|g3g f2e2 d2c2|
A2c2 fg a2 c3a|b3a g2 ab g2f2|b2a2 g2f2 b2d2|
gfed c2B2 c2F2|GAB2 ABc2 def2|g3f e2d2 c2B2|]
W:
T:The Collier's Daughter or the Duke of Rutland's delight.
T:John Malchairs Third Collection of Tunes
T:also in thomsons Orpheus Caledonius Vol 1 No.44.
F:https://www.vwml.org/record/Malchair/3619/p16
F:www.vwml.org/topics/historic-dance-and-tune-books/Malchair
Z:Peter Dunk Jan 2020
M:C|
L:1/8
K:F
dc|B2G2G2G2|G4D4|D2 F4 F2|A2 c4 dc|
B2G2G2G2|G4D4|cBAG cBAG|B2 d4||
ef|gfed cded|c4f4|cBAG FGAB|A4c4|
B2G2A2D2|B2G2A2D2|gfef g2G2|B2 d4|]
W:
T:Brittains Glory
T:John Malchairs Third Collection of Tunes
F:https://www.vwml.org/record/Malchair/3619/p16
F:www.vwml.org/topics/historic-dance-and-tune-books/Malchair
Z:Peter Dunk Jan 2020
M:6/4
L:1/8
K:D
D2|D2E2F2 G4 B2|A2F2A2 d6|f3g f2 e4 d2|e2f2e2 c2B2A2|
D2E2F2 G4B2|A2F2A2 d6|f3g f2 e4 d2|e6-e4||
fg|a4 A2 d4 c2|B4 g2 e3d c2|d4 c2 B4 A2|G4 e2 c3B A2|
f3g ab g4 f2|e3f ga f4 e2|d3e fg e4 d2|d6-d4|]

